T: Haley's
M: 6/8
L: 1/8
K: Edor
|: F | E2 E GEG | B2 B e2 f | gfe d2 G | FAG FED | ~[2 E^DE G2 G | B^AB e3 | g2 e dBA | GE^D E2 |]
